Sources/FrostedUI/Resources/Icons.xcassets/reply12.imageset/reply-12.svg

<svg width="12" height="12" viewBox="0 0 12 12" fill="none" xmlns="http://www.w3.org/2000/svg" data-fui-icon="true">
  <path
    d="M4.83215 1.3446C5.47516 0.922017 6.37504 1.3746 6.37512 2.18542V3.51746C8.18564 3.60745 9.56144 4.05095 10.4728 5.10242C11.479 6.26348 11.7501 7.98457 11.7501 10.1249C11.75 10.4726 11.5105 10.7745 11.172 10.8544C10.8335 10.9342 10.4848 10.7709 10.3292 10.4598L11.0001 10.1249H10.9991L10.3292 10.4598C9.93755 9.6765 9.74459 9.30339 9.25598 9.02722C8.78777 8.76262 7.97843 8.55738 6.37512 8.50964V9.81433C6.37512 10.6792 5.35117 11.1364 4.70715 10.5585L0.456177 6.74402C0.0136984 6.34679 0.0134776 5.65317 0.456177 5.25574L4.70715 1.44031L4.83215 1.3446ZM1.87219 5.99988L4.87512 8.69324V7.74988C4.87518 7.33574 5.21098 6.99991 5.62512 6.99988C7.76335 6.9999 9.093 7.21219 9.99426 7.72156C10.0179 7.73495 10.0406 7.74982 10.0636 7.76355C9.91492 7.01261 9.67621 6.47394 9.33899 6.08484C8.74731 5.40223 7.69054 4.99992 5.62512 4.99988C5.21101 4.99984 4.87524 4.66397 4.87512 4.24988V3.30554L1.87219 5.99988Z"
    fill="currentColor"
  />
</svg>

<svg xmlns="http://www.w3.org/2000/svg" width="12" height="12" fill="none" data-fui-icon="true" viewBox="0 0 12 12"><path fill="currentColor" d="M4.832 1.345c.643-.423 1.543.03 1.543.84v1.332c1.81.09 3.186.534 4.098 1.585 1.006 1.161 1.277 2.883 1.277 5.023a.75.75 0 0 1-1.42.335l.67-.335-.67.335c-.392-.784-.585-1.157-1.074-1.433-.468-.264-1.278-.47-2.88-.517v1.304c0 .865-1.025 1.322-1.669.745L.457 6.744a1 1 0 0 1 0-1.488l4.25-3.816zM1.872 6l3.003 2.693V7.75a.75.75 0 0 1 .75-.75c2.138 0 3.468.212 4.37.722l.069.042c-.15-.751-.388-1.29-.725-1.68C8.747 5.403 7.691 5 5.625 5a.75.75 0 0 1-.75-.75v-.944z"/></svg>
